icons/thumbs-down.svg

<?xml version="1.0" standalone="no"?><!-- Generator: Gravit.io --><svg xmlns="http://www.w3.org/2000/svg" xmlns:xlink="http://www.w3.org/1999/xlink" width="96" height="96"><path d=" M 84.2 46.351410223774145 L 84.4 42.65141022377415 L 84.7 39.05141022377415 L 84.6 37.251410223774144 L 82.8 30.55141022377414 L 81.9 27.55141022377414 L 81.3 23.751410223774144 C 81.1 21.451410223774147 80.6 19.05141022377414 79.6 16.851410223774153 C 78.3 14.551410223774141 76.2 12.551410223774141 73.8 11.251410223774144 L 72.4 10.251410223774144 L 71.3 9.351410223774153 C 69.1 7.251410223774144 66.3 5.8514102237741525 63.3 5.751410223774144 C 60.2 6.051410223774141 57.2 6.951410223774147 54.4 8.251410223774144 C 47.5 11.051410223774141 40.4 12.951410223774147 33.1 13.951410223774147 C 30.8 14.15141022377415 28.6 14.351410223774153 26.3 14.351410223774153 C 24 14.351410223774153 21.6 14.251410223774144 19.3 14.051410223774141 C 19.2 14.051410223774141 19.2 14.051410223774141 19.1 14.051410223774141 L 18.8 14.051410223774141 C 18.8 14.051410223774141 18.7 14.051410223774141 18.7 14.051410223774141 C 16.6 14.051410223774141 14.7 14.951410223774147 13.2 16.351410223774153 C 11.8 17.751410223774144 11 19.751410223774144 11 21.751410223774144 L 11 49.45141022377415 C 11 51.55141022377415 11.8 53.55141022377415 13.3 54.95141022377415 C 14.7 56.45141022377415 16.7 57.251410223774144 18.8 57.251410223774144 C 18.8 57.251410223774144 18.8 57.251410223774144 18.9 57.251410223774144 L 19.1 57.251410223774144 C 19.1 57.251410223774144 19.2 57.251410223774144 19.2 57.251410223774144 C 19.6 57.251410223774144 20 57.251410223774144 20.4 57.351410223774145 C 21.5 57.55141022377415 22.5 57.851410223774145 23.6 58.251410223774144 C 26 58.95141022377415 28.2 60.251410223774144 30 62.05141022377415 C 31.9 64.35141022377414 33.4 66.95141022377415 34.3 69.85141022377414 C 35.2 72.25141022377414 35.8 74.75141022377414 36.1 77.35141022377414 C 36.1 77.35141022377414 36.1 77.35141022377414 36.1 77.35141022377414 L 36.4 79.65141022377415 L 38 84.95141022377415 C 38 85.05141022377414 38 85.15141022377415 38 85.25141022377414 C 39 87.85141022377415 41.4 89.75141022377414 44.2 90.15141022377415 C 47.6 90.45141022377415 50.9 89.35141022377415 53.5 87.15141022377415 C 55.3 84.95141022377415 56.1 82.15141022377415 55.9 79.35141022377414 L 55.9 78.55141022377416 L 55.1 73.45141022377415 L 54.1 66.25141022377414 C 54.1 64.45141022377415 54.6 62.65141022377415 55.4 60.95141022377415 C 55.5 60.851410223774145 55.6 60.751410223774144 55.8 60.751410223774144 C 63 59.95141022377415 70.2 59.95141022377415 77.4 60.55141022377415 C 77.5 60.55141022377415 77.5 60.55141022377415 77.6 60.55141022377415 L 78 60.65141022377415 C 78 60.65141022377415 78 60.65141022377415 78.1 60.65141022377415 C 79.9 60.65141022377415 81.6 59.95141022377415 82.9 58.751410223774144 C 84.2 57.45141022377415 85 55.751410223774144 85 53.95141022377415 Q 85 53.751410223774144 84.9 52.55141022377415 C 84.9 52.45141022377415 84.7 51.351410223774145 84.6 50.95141022377415 C 84.5 49.45141022377415 84.3 47.95141022377415 84.2 46.351410223774145 Z  M 76.8 52.45141022377415 Q 76.7 52.251410223774144 76.2 45.751410223774144 L 76.5 42.05141022377415 L 76.7 38.55141022377415 L 75.1 32.851410223774145 L 74 29.351410223774153 Q 73.3 24.55141022377414 73.3 24.351410223774153 C 73.2 23.05141022377414 72.9 21.751410223774144 72.5 20.55141022377414 C 71.8 19.55141022377414 69.7 18.15141022377415 69.6 18.05141022377414 L 67.6 16.751410223774144 Q 65.7 15.15141022377415 65.6 15.051410223774141 C 65 14.351410223774153 64.2 13.951410223774147 63.3 13.751410223774144 C 61.4 14.051410223774141 59.5 14.65141022377415 57.7 15.551410223774141 C 50.1 18.65141022377415 42.1 20.851410223774153 34 21.951410223774147 C 31.5 22.15141022377415 28.9 22.351410223774153 26.4 22.351410223774153 C 23.9 22.351410223774153 21.5 22.251410223774144 19 22.05141022377414 Q 18.9 22.05141022377414 19 22.05141022377414 Q 18.9 49.251410223774144 19 49.251410223774144 C 20 49.251410223774144 20.9 49.351410223774145 21.9 49.45141022377415 C 23.3 49.751410223774144 24.7 50.15141022377415 26.1 50.65141022377415 C 29.8 51.751410223774144 33.2 53.851410223774145 35.9 56.751410223774144 C 38.5 59.751410223774144 40.5 63.351410223774145 41.8 67.15141022377415 C 43 70.15141022377415 43.7 73.25141022377414 44.1 76.45141022377415 L 44.3 78.05141022377416 L 45.5 82.25141022377414 C 46.3 82.15141022377415 47 81.95141022377415 47.6 81.55141022377414 C 47.9 81.05141022377414 48 80.55141022377414 47.9 80.05141022377414 C 47.9 79.95141022377415 47.9 79.75141022377414 47.9 79.65141022377415 L 47.9 79.15141022377415 L 47.2 74.65141022377415 L 46.2 67.05141022377416 C 46.2 66.85141022377414 46.1 66.75141022377414 46.1 66.55141022377416 C 46.1 63.45141022377415 46.8 60.351410223774145 48.2 57.45141022377415 C 49.5 54.851410223774145 52 53.05141022377415 55 52.751410223774144 C 62.2 52.05141022377415 69.5 51.95141022377415 76.8 52.45141022377415 Z  M 45.5 82.25141022377414" fill-rule="evenodd" fill="#454545" stroke="none"/><mask id="_mask_KwqKn0g5pywxpiwBIvsUBF58BxIV4fzH"><path d=" M 84.2 46.351410223774145 L 84.4 42.65141022377415 L 84.7 39.05141022377415 L 84.6 37.251410223774144 L 82.8 30.55141022377414 L 81.9 27.55141022377414 L 81.3 23.751410223774144 C 81.1 21.451410223774147 80.6 19.05141022377414 79.6 16.851410223774153 C 78.3 14.551410223774141 76.2 12.551410223774141 73.8 11.251410223774144 L 72.4 10.251410223774144 L 71.3 9.351410223774153 C 69.1 7.251410223774144 66.3 5.8514102237741525 63.3 5.751410223774144 C 60.2 6.051410223774141 57.2 6.951410223774147 54.4 8.251410223774144 C 47.5 11.051410223774141 40.4 12.951410223774147 33.1 13.951410223774147 C 30.8 14.15141022377415 28.6 14.351410223774153 26.3 14.351410223774153 C 24 14.351410223774153 21.6 14.251410223774144 19.3 14.051410223774141 C 19.2 14.051410223774141 19.2 14.051410223774141 19.1 14.051410223774141 L 18.8 14.051410223774141 C 18.8 14.051410223774141 18.7 14.051410223774141 18.7 14.051410223774141 C 16.6 14.051410223774141 14.7 14.951410223774147 13.2 16.351410223774153 C 11.8 17.751410223774144 11 19.751410223774144 11 21.751410223774144 L 11 49.45141022377415 C 11 51.55141022377415 11.8 53.55141022377415 13.3 54.95141022377415 C 14.7 56.45141022377415 16.7 57.251410223774144 18.8 57.251410223774144 C 18.8 57.251410223774144 18.8 57.251410223774144 18.9 57.251410223774144 L 19.1 57.251410223774144 C 19.1 57.251410223774144 19.2 57.251410223774144 19.2 57.251410223774144 C 19.6 57.251410223774144 20 57.251410223774144 20.4 57.351410223774145 C 21.5 57.55141022377415 22.5 57.851410223774145 23.6 58.251410223774144 C 26 58.95141022377415 28.2 60.251410223774144 30 62.05141022377415 C 31.9 64.35141022377414 33.4 66.95141022377415 34.3 69.85141022377414 C 35.2 72.25141022377414 35.8 74.75141022377414 36.1 77.35141022377414 C 36.1 77.35141022377414 36.1 77.35141022377414 36.1 77.35141022377414 L 36.4 79.65141022377415 L 38 84.95141022377415 C 38 85.05141022377414 38 85.15141022377415 38 85.25141022377414 C 39 87.85141022377415 41.4 89.75141022377414 44.2 90.15141022377415 C 47.6 90.45141022377415 50.9 89.35141022377415 53.5 87.15141022377415 C 55.3 84.95141022377415 56.1 82.15141022377415 55.9 79.35141022377414 L 55.9 78.55141022377416 L 55.1 73.45141022377415 L 54.1 66.25141022377414 C 54.1 64.45141022377415 54.6 62.65141022377415 55.4 60.95141022377415 C 55.5 60.851410223774145 55.6 60.751410223774144 55.8 60.751410223774144 C 63 59.95141022377415 70.2 59.95141022377415 77.4 60.55141022377415 C 77.5 60.55141022377415 77.5 60.55141022377415 77.6 60.55141022377415 L 78 60.65141022377415 C 78 60.65141022377415 78 60.65141022377415 78.1 60.65141022377415 C 79.9 60.65141022377415 81.6 59.95141022377415 82.9 58.751410223774144 C 84.2 57.45141022377415 85 55.751410223774144 85 53.95141022377415 Q 85 53.751410223774144 84.9 52.55141022377415 C 84.9 52.45141022377415 84.7 51.351410223774145 84.6 50.95141022377415 C 84.5 49.45141022377415 84.3 47.95141022377415 84.2 46.351410223774145 Z  M 76.8 52.45141022377415 Q 76.7 52.251410223774144 76.2 45.751410223774144 L 76.5 42.05141022377415 L 76.7 38.55141022377415 L 75.1 32.851410223774145 L 74 29.351410223774153 Q 73.3 24.55141022377414 73.3 24.351410223774153 C 73.2 23.05141022377414 72.9 21.751410223774144 72.5 20.55141022377414 C 71.8 19.55141022377414 69.7 18.15141022377415 69.6 18.05141022377414 L 67.6 16.751410223774144 Q 65.7 15.15141022377415 65.6 15.051410223774141 C 65 14.351410223774153 64.2 13.951410223774147 63.3 13.751410223774144 C 61.4 14.051410223774141 59.5 14.65141022377415 57.7 15.551410223774141 C 50.1 18.65141022377415 42.1 20.851410223774153 34 21.951410223774147 C 31.5 22.15141022377415 28.9 22.351410223774153 26.4 22.351410223774153 C 23.9 22.351410223774153 21.5 22.251410223774144 19 22.05141022377414 Q 18.9 22.05141022377414 19 22.05141022377414 Q 18.9 49.251410223774144 19 49.251410223774144 C 20 49.251410223774144 20.9 49.351410223774145 21.9 49.45141022377415 C 23.3 49.751410223774144 24.7 50.15141022377415 26.1 50.65141022377415 C 29.8 51.751410223774144 33.2 53.851410223774145 35.9 56.751410223774144 C 38.5 59.751410223774144 40.5 63.351410223774145 41.8 67.15141022377415 C 43 70.15141022377415 43.7 73.25141022377414 44.1 76.45141022377415 L 44.3 78.05141022377416 L 45.5 82.25141022377414 C 46.3 82.15141022377415 47 81.95141022377415 47.6 81.55141022377414 C 47.9 81.05141022377414 48 80.55141022377414 47.9 80.05141022377414 C 47.9 79.95141022377415 47.9 79.75141022377414 47.9 79.65141022377415 L 47.9 79.15141022377415 L 47.2 74.65141022377415 L 46.2 67.05141022377416 C 46.2 66.85141022377414 46.1 66.75141022377414 46.1 66.55141022377416 C 46.1 63.45141022377415 46.8 60.351410223774145 48.2 57.45141022377415 C 49.5 54.851410223774145 52 53.05141022377415 55 52.751410223774144 C 62.2 52.05141022377415 69.5 51.95141022377415 76.8 52.45141022377415 Z  M 45.5 82.25141022377414" fill-rule="evenodd" fill="white" stroke="none"/></mask><path d=" M 84.2 46.351410223774145 L 84.4 42.65141022377415 L 84.7 39.05141022377415 L 84.6 37.251410223774144 L 82.8 30.55141022377414 L 81.9 27.55141022377414 L 81.3 23.751410223774144 C 81.1 21.451410223774147 80.6 19.05141022377414 79.6 16.851410223774153 C 78.3 14.551410223774141 76.2 12.551410223774141 73.8 11.251410223774144 L 72.4 10.251410223774144 L 71.3 9.351410223774153 C 69.1 7.251410223774144 66.3 5.8514102237741525 63.3 5.751410223774144 C 60.2 6.051410223774141 57.2 6.951410223774147 54.4 8.251410223774144 C 47.5 11.051410223774141 40.4 12.951410223774147 33.1 13.951410223774147 C 30.8 14.15141022377415 28.6 14.351410223774153 26.3 14.351410223774153 C 24 14.351410223774153 21.6 14.251410223774144 19.3 14.051410223774141 C 19.2 14.051410223774141 19.2 14.051410223774141 19.1 14.051410223774141 L 18.8 14.051410223774141 C 18.8 14.051410223774141 18.7 14.051410223774141 18.7 14.051410223774141 C 16.6 14.051410223774141 14.7 14.951410223774147 13.2 16.351410223774153 C 11.8 17.751410223774144 11 19.751410223774144 11 21.751410223774144 L 11 49.45141022377415 C 11 51.55141022377415 11.8 53.55141022377415 13.3 54.95141022377415 C 14.7 56.45141022377415 16.7 57.251410223774144 18.8 57.251410223774144 C 18.8 57.251410223774144 18.8 57.251410223774144 18.9 57.251410223774144 L 19.1 57.251410223774144 C 19.1 57.251410223774144 19.2 57.251410223774144 19.2 57.251410223774144 C 19.6 57.251410223774144 20 57.251410223774144 20.4 57.351410223774145 C 21.5 57.55141022377415 22.5 57.851410223774145 23.6 58.251410223774144 C 26 58.95141022377415 28.2 60.251410223774144 30 62.05141022377415 C 31.9 64.35141022377414 33.4 66.95141022377415 34.3 69.85141022377414 C 35.2 72.25141022377414 35.8 74.75141022377414 36.1 77.35141022377414 C 36.1 77.35141022377414 36.1 77.35141022377414 36.1 77.35141022377414 L 36.4 79.65141022377415 L 38 84.95141022377415 C 38 85.05141022377414 38 85.15141022377415 38 85.25141022377414 C 39 87.85141022377415 41.4 89.75141022377414 44.2 90.15141022377415 C 47.6 90.45141022377415 50.9 89.35141022377415 53.5 87.15141022377415 C 55.3 84.95141022377415 56.1 82.15141022377415 55.9 79.35141022377414 L 55.9 78.55141022377416 L 55.1 73.45141022377415 L 54.1 66.25141022377414 C 54.1 64.45141022377415 54.6 62.65141022377415 55.4 60.95141022377415 C 55.5 60.851410223774145 55.6 60.751410223774144 55.8 60.751410223774144 C 63 59.95141022377415 70.2 59.95141022377415 77.4 60.55141022377415 C 77.5 60.55141022377415 77.5 60.55141022377415 77.6 60.55141022377415 L 78 60.65141022377415 C 78 60.65141022377415 78 60.65141022377415 78.1 60.65141022377415 C 79.9 60.65141022377415 81.6 59.95141022377415 82.9 58.751410223774144 C 84.2 57.45141022377415 85 55.751410223774144 85 53.95141022377415 Q 85 53.751410223774144 84.9 52.55141022377415 C 84.9 52.45141022377415 84.7 51.351410223774145 84.6 50.95141022377415 C 84.5 49.45141022377415 84.3 47.95141022377415 84.2 46.351410223774145 Z  M 76.8 52.45141022377415 Q 76.7 52.251410223774144 76.2 45.751410223774144 L 76.5 42.05141022377415 L 76.7 38.55141022377415 L 75.1 32.851410223774145 L 74 29.351410223774153 Q 73.3 24.55141022377414 73.3 24.351410223774153 C 73.2 23.05141022377414 72.9 21.751410223774144 72.5 20.55141022377414 C 71.8 19.55141022377414 69.7 18.15141022377415 69.6 18.05141022377414 L 67.6 16.751410223774144 Q 65.7 15.15141022377415 65.6 15.051410223774141 C 65 14.351410223774153 64.2 13.951410223774147 63.3 13.751410223774144 C 61.4 14.051410223774141 59.5 14.65141022377415 57.7 15.551410223774141 C 50.1 18.65141022377415 42.1 20.851410223774153 34 21.951410223774147 C 31.5 22.15141022377415 28.9 22.351410223774153 26.4 22.351410223774153 C 23.9 22.351410223774153 21.5 22.251410223774144 19 22.05141022377414 Q 18.9 22.05141022377414 19 22.05141022377414 Q 18.9 49.251410223774144 19 49.251410223774144 C 20 49.251410223774144 20.9 49.351410223774145 21.9 49.45141022377415 C 23.3 49.751410223774144 24.7 50.15141022377415 26.1 50.65141022377415 C 29.8 51.751410223774144 33.2 53.851410223774145 35.9 56.751410223774144 C 38.5 59.751410223774144 40.5 63.351410223774145 41.8 67.15141022377415 C 43 70.15141022377415 43.7 73.25141022377414 44.1 76.45141022377415 L 44.3 78.05141022377416 L 45.5 82.25141022377414 C 46.3 82.15141022377415 47 81.95141022377415 47.6 81.55141022377414 C 47.9 81.05141022377414 48 80.55141022377414 47.9 80.05141022377414 C 47.9 79.95141022377415 47.9 79.75141022377414 47.9 79.65141022377415 L 47.9 79.15141022377415 L 47.2 74.65141022377415 L 46.2 67.05141022377416 C 46.2 66.85141022377414 46.1 66.75141022377414 46.1 66.55141022377416 C 46.1 63.45141022377415 46.8 60.351410223774145 48.2 57.45141022377415 C 49.5 54.851410223774145 52 53.05141022377415 55 52.751410223774144 C 62.2 52.05141022377415 69.5 51.95141022377415 76.8 52.45141022377415 Z  M 45.5 82.25141022377414" fill-rule="evenodd" fill="none" stroke="none" stroke-width="16" mask="url(#_mask_KwqKn0g5pywxpiwBIvsUBF58BxIV4fzH)"/></svg>

<svg xmlns="http://www.w3.org/2000/svg" width="96" height="96"><path d="M84.2 46.351l.2-3.7.3-3.6-.1-1.8-1.8-6.7-.9-3-.6-3.8c-.2-2.3-.7-4.7-1.7-6.9-1.3-2.3-3.4-4.3-5.8-5.6l-1.4-1-1.1-.9c-2.2-2.1-5-3.5-8-3.6-3.1.3-6.1 1.2-8.9 2.5-6.9 2.8-14 4.7-21.3 5.7-2.3.2-4.5.4-6.8.4s-4.7-.1-7-.3h-.5-.1c-2.1 0-4 .9-5.5 2.3-1.4 1.4-2.2 3.4-2.2 5.4v27.7c0 2.1.8 4.1 2.3 5.5 1.4 1.5 3.4 2.3 5.5 2.3h.4c.4 0 .8 0 1.2.1 1.1.2 2.1.5 3.2.9 2.4.7 4.6 2 6.4 3.8 1.9 2.3 3.4 4.9 4.3 7.8.9 2.4 1.5 4.9 1.8 7.5l.3 2.3 1.6 5.3v.3c1 2.6 3.4 4.5 6.2 4.9 3.4.3 6.7-.8 9.3-3 1.8-2.2 2.6-5 2.4-7.8v-.8l-.8-5.1-1-7.2c0-1.8.5-3.6 1.3-5.3.1-.1.2-.2.4-.2 7.2-.8 14.4-.8 21.6-.2h.2l.4.1h.1c1.8 0 3.5-.7 4.8-1.9 1.3-1.3 2.1-3 2.1-4.8q0-.2-.1-1.4c0-.1-.2-1.2-.3-1.6-.1-1.5-.3-3-.4-4.6zm-7.4 6.1q-.1-.2-.6-6.7l.3-3.7.2-3.5-1.6-5.7-1.1-3.5q-.7-4.8-.7-5c-.1-1.3-.4-2.6-.8-3.8-.7-1-2.8-2.4-2.9-2.5l-2-1.3q-1.9-1.6-2-1.7c-.6-.7-1.4-1.1-2.3-1.3-1.9.3-3.8.9-5.6 1.8-7.6 3.1-15.6 5.3-23.7 6.4-2.5.2-5.1.4-7.6.4s-4.9-.1-7.4-.3q-.1 0 0 0-.1 27.2 0 27.2c1 0 1.9.1 2.9.2 1.4.3 2.8.7 4.2 1.2 3.7 1.1 7.1 3.2 9.8 6.1 2.6 3 4.6 6.6 5.9 10.4 1.2 3 1.9 6.1 2.3 9.3l.2 1.6 1.2 4.2c.8-.1 1.5-.3 2.1-.7.3-.5.4-1 .3-1.5v-.9l-.7-4.5-1-7.6c0-.2-.1-.3-.1-.5 0-3.1.7-6.2 2.1-9.1 1.3-2.6 3.8-4.4 6.8-4.7 7.2-.7 14.5-.8 21.8-.3zm-31.3 29.8" fill-rule="evenodd" fill="#454545"/></svg>
